!!!CDT:
!!!PTL: Il lauro secco
!!!PPP: Ferrara
!!!PPR: Baldini
!!!PDT: 1582
!!!RISM: 1582-05
!!!rime: 191
!!!AGN: Madrigal
!!!SCT: Trm0191a
!!!SCA: Trm0191a
!!!voices:
!!!COM: Virchi, Paolo
!!!OTL:	Arsi mentre a voi piacque (i.e. "Arsi mentre m'amaste," Rime 191)
**kern	**text	**kern	**text	**kern	**text	**kern	**text	**kern	**text
*part5	*part5	*part4	*part4	*part3	*part3	*part2	*part2	*part1	*part1
*staff5	*staff5	*staff4	*staff4	*staff3	*staff3	*staff2	*staff2	*staff1	*staff1
*I"Basso	*	*I"Quinto	*	*I"Tenore	*	*I"Alto	*	*I"Canto	*
*I'B	*	*I'V	*	*I'T	*	*I'A	*	*I'C	*
*oclefF3	*	*oclefC3	*	*oclefC3	*	*oclefC1	*	*oclefG2	*
*clefF4	*	*clefGv2	*	*clefGv2	*	*clefG2	*	*clefG2	*
*k[]	*	*k[]	*	*k[]	*	*k[]	*	*k[]	*
*C:	*	*C:	*	*C:	*	*C:	*	*C:	*
*omet(C)	*	*omet(C)	*	*omet(C)	*	*omet(C)	*	*omet(C)	*
*M4/2	*	*M4/2	*	*M4/2	*	*M4/2	*	*M4/2	*
=1	=	=	=	=	=	=	=	=	=
0r	.	0r	.	1r	.	2.d	Ar-	2r	.
.	.	.	.	.	.	.	.	2.a	Ar-
.	.	.	.	.	.	4a	-si	.	.
.	.	.	.	2r	.	4f	men-	.	.
.	.	.	.	.	.	8f	-tre a	4dd	-si
.	.	.	.	.	.	8g	voi	.	.
.	.	.	.	[2A	Ar-	[2a	piac-	4cc	men-
.	.	.	.	.	.	.	.	8cc	-tre a
.	.	.	.	.	.	.	.	8dd	voi
=2	=2	=2	=2	=2	=2	=2	=2	=2	=2
1r	.	2r	.	4A]	.	2a]	.	4ee	piac-
.	.	.	.	4d	-si	.	.	4ff	-que,
.	.	2.A	Ar-	4c	men-	2a	-que,	4ee	men-
.	.	.	.	8c	-tre a	.	.	8ee	-tre a
.	.	.	.	8d	voi	.	.	8dd	voi
2r	.	.	.	4e	piac-	4a	men-	4cc#X	piac-
.	.	4d	-si	4f	-que,	8a	-tre a	4dd	-que,
.	.	.	.	.	.	8g	voi	.	.
[2A	Ar-	4c	men-	4e	men-	[2a	piac-	4r	.
.	.	8c	-tre a	8e	-tre a	.	.	4ccnXi	Et
.	.	8d	voi	8d	voi	.	.	.	.
=3	=3	=3	=3	=3	=3	=3	=3	=3	=3
4A]	.	4e	piac-	4c	piac-	4a]	.	4cc	al
4d	-si	4f	-que,	4d	-que,	4f	.	8bL	.
.	.	.	.	.	.	.	.	8aJ	.
4c	men-	4e	men-	2r	.	2g	.	4cc	.
8c	-tre a	8e	-tre a	.	.	.	.	4ee	cor-
8B	voi	8d	voi	.	.	.	.	.	.
4A	piac-	4c	piac-	1r	.	[1a	-que,	2ff	-te-
4D	-que,	4d	-que,	.	.	.	.	.	.
4F	men-	4r	.	.	.	.	.	2cc	-se af-
8F	-tre a	4f	Et	.	.	.	.	.	.
8G	voi	.	.	.	.	.	.	.	.
=4	=4	=4	=4	=4	=4	=4	=4	=4	=4
*lig	*	*	*	*	*	*	*	*	*
1A	piac-	4f	al	4c	Et	2a]	.	2.cc	-fet-
.	.	8eL	.	2c	al	.	.	.	.
.	.	8dJ	.	.	.	.	.	.	.
.	.	4e	.	.	.	2a	Et	.	.
.	.	4f	cor-	8BL	.	.	.	4dd	.
.	.	.	.	8AJ	.	.	.	.	.
1E	.	2e	-te-	4B	.	4a	al	1ee	.
*Xlig	*	*	*	*	*	*	*	*	*
.	.	.	.	4B	cor-	8g#XL	.	.	.
.	.	.	.	.	.	8f#XJ	.	.	.
.	.	2B	-se af-	2e	-te-	4g#X	.	.	.
.	.	.	.	.	.	4g#X	cor-	.	.
=5	=5	=5	=5	=5	=5	=5	=5	=5	=5
4AA	-que,	2c	-fet-	4e	-se,	2.a	-te-	1.ee	-to
4A	Et	.	.	4c	Et	.	.	.	.
4A	al	2e	-to	4c	al	.	.	.	.
8GL	.	.	.	8BL	.	2b	-se af-	.	.
8F#XJ	.	.	.	8AJ	.	.	.	.	.
4G#X	.	2r	.	4B	.	.	.	.	.
4A	cor-	.	.	4c	cor-	2a	-fet-	.	.
4D	-te-	4r	.	4f	-te-	.	.	2r	.
4E	-se af-	4e	Pa-	[4e	-se af-	4g#X	.	.	.
=6	=6	=6	=6	=6	=6	=6	=6	=6	=6
4.FnXi	-fet-	4c	-gò	4e]	.	1.a	-to	2r	.
.	.	4A	tri-	2d	-fet-	.	.	.	.
8GnXi	.	.	.	.	.	.	.	.	.
2A	.	2e	-bu-	.	.	.	.	2ee	Pa-
.	.	.	.	4c#X	.	.	.	.	.
1D	-to	4.d	-to,	2d	-to	.	.	2ff	-gò
.	.	8d	Pa-	.	.	.	.	.	.
.	.	2f	-gò	2d	Pa-	2a	Pa-	2dd	tri-
=7	=7	=7	=7	=7	=7	=7	=7	=7	=7
0r	.	4e	tri-	4.cnXi	-gò	4cc	-gò	2ee	-bu-
.	.	2a	-bu-	.	.	4ee	tri-	.	.
.	.	.	.	8d	tri-	.	.	.	.
.	.	.	.	2e	-bu-	2b	-bu-	2ee	-to
.	.	4g#X	.	.	.	.	.	.	.
.	.	2a	-to	2A	-to,	2cc	-to	4r	.
.	.	.	.	.	.	.	.	8cc	di
.	.	.	.	.	.	.	.	8dd	so-
.	.	4r	.	2r	.	4r	.	4ee	-spi-
.	.	8f	di	.	.	8a	di	4dd	-ri il
.	.	8gnXi	so-	.	.	8b	so-	.	.
=8	=8	=8	=8	=8	=8	=8	=8	=8	=8
2A	Pa-	4a	-spi-	2r	.	4cc	-spi-	2.cc	pet-
.	.	4e	-ri il	.	.	4a	-ri il	.	.
4F	-gò	2.f	pet-	4r	.	1a	pet-	.	.
4D	tri-	.	.	2d	Pa-	.	.	4dd	-to,
2A	-bu-	.	.	.	.	.	.	4r	.
.	.	8eL	.	2c	-gò	.	.	8a	di
.	.	8dJ	.	.	.	.	.	8b	so-
2A	-to	2e	.	.	.	2a	-to.	[2cc	-spi-
.	.	.	.	4A	tri-	.	.	.	.
=9	=9	=9	=9	=9	=9	=9	=9	=9	=9
4r	.	2A	-to,	2a	-bu-	2r	.	2cc]	.
8F	di	.	.	.	.	.	.	.	.
8G	so-	.	.	.	.	.	.	.	.
4A	-spi-	4r	.	4e	-to	2a	Ma	4r	.
4D	-ri il	8A	di	8f	di	.	.	4ff	-ri il
.	.	8B	so-	8g	so-	.	.	.	.
1A	pet-	4c#X	-spi-	4a	-spi-	[1a	poi,	4ee	pet-
.	.	4d	-ri il	4f	-ri il	.	.	2dd	.
.	.	2e	pet-	2e	pet-	.	.	.	.
.	.	.	.	.	.	.	.	4cc#X	.
=10	=10	=10	=10	=10	=10	=10	=10	=10	=10
2D	-to.	2f#X	-to.	2d	-to.	2a]	.	2dd	-to.
2A	Ma	2r	.	4r	.	2cc#X	Ma	2ee	Ma
.	.	.	.	4a	Ma	.	.	.	.
2d	poi	1r	.	2a	poi	2dd	poi	2ff	poi
4c#X	che'l	.	.	4e	che'l	4a	che'l	4ee	che'l
[4d	vo-	.	.	[4f	vo-	[4a	vo-	[4dd	vo-
=11	=11	=11	=11	=11	=11	=11	=11	=11	=11
4d]	.	1r	.	4f]	.	4a]	.	4dd]	.
4A	-stro a-	.	.	4f	-stro a-	4a	-stro a-	4cc	-stro a-
2B-X	-mo-	.	.	4f	-mo-	4a	-mo-	2.dd	-mo-
.	.	.	.	8eL	.	4g	.	.	.
.	.	.	.	8dJ	.	.	.	.	.
2A	-re	4r	.	2e	-re	2a	-re	.	.
.	.	4A	Vol-	.	.	.	.	4cc#X	-re
2G	Vol-	8BL	-ge-	2g	Vol-	2r	.	2dd	Vol-
.	.	8c	.	.	.	.	.	.	.
.	.	8d	.	.	.	.	.	.	.
.	.	8BJ	.	.	.	.	.	.	.
=12	=12	=12	=12	=12	=12	=12	=12	=12	=12
2A	-ge-	2c	.	8eL	-ge-	0r	.	8ccnXiL	-ge-
.	.	.	.	8d	.	.	.	8b	.
.	.	.	.	8e	.	.	.	8cc	.
.	.	.	.	8fJ	.	.	.	8ddJ	.
4c	-ste in	4g	-ste in	4e	.	.	.	4ee	.
2F	al-	2a	al-	4f	-ste in	.	.	4cc	-ste in
.	.	.	.	8d	al-	.	.	4.ff	al-
.	.	.	.	8c	-tra	.	.	.	.
4F	-tra	4a	-tra	2c	par-	.	.	.	.
.	.	.	.	.	.	.	.	8ee	-tra
2G	par-	2d	par-	.	.	.	.	2dd	par-
.	.	.	.	4B	.	.	.	.	.
=13	=13	=13	=13	=13	=13	=13	=13	=13	=13
2c	-te,	4e	-te,	4c	-te,	1r	.	1cc	-te,
.	.	4e	Vol-	4A	Vol-	.	.	.	.
2r	.	8eL	-ge-	8AL	-ge-	.	.	.	.
.	.	8d	.	8B	.	.	.	.	.
.	.	8e	.	8c	.	.	.	.	.
.	.	8fJ	.	8AJ	.	.	.	.	.
2r	.	2g	.	4B	.	2r	.	1r	.
.	.	.	.	4c	-ste in	.	.	.	.
2G	Vol-	2d	-ste in	4B	al-	2g	Vol-	.	.
.	.	.	.	4B	-tra	.	.	.	.
=14	=14	=14	=14	=14	=14	=14	=14	=14	=14
8FL	-ge-	2f	al-	2c	par-	2a	-ge-	2r	.
8E	.	.	.	.	.	.	.	.	.
8F	.	.	.	.	.	.	.	.	.
8GJ	.	.	.	.	.	.	.	.	.
4A	.	2f	-tra	2c	-te,	4cc	-ste in	4r	.
4F	-ste in	.	.	.	.	2f	al-	4a	in
4.B-i	al-	8dL	par-	1r	.	.	.	4dd	al-
.	.	8eJ	.	.	.	.	.	.	.
.	.	2f	.	.	.	4f	-tra	4cc	-tra
8A	-tra	.	.	.	.	.	.	.	.
2G	par-	.	.	.	.	2g	par-	2b-X	par-
.	.	4e	.	.	.	.	.	.	.
=15	=15	=15	=15	=15	=15	=15	=15	=15	=15
1F	-te,	1f	-te,	2r	.	2cc	-te,	2a	-te,
.	.	.	.	1A	Don-	2r	.	1cc	Don-
1r	.	1r	.	.	.	2e	Don-	.	.
.	.	.	.	[2d	-na,	[2f	-na,	2a	-na,
=16	=16	=16	=16	=16	=16	=16	=16	=16	=16
1.A	Don-	1r	.	2d]	.	2f]	.	2r	.
.	.	.	.	1c#X	Don-	1e	Don-	1a	Don-
.	.	1A	Don-	.	.	.	.	.	.
[2D	-na,	.	.	2d	-na,	2f	-na,	4a	-na,
.	.	.	.	.	.	.	.	4dd	s'e-
=17	=17	=17	=17	=17	=17	=17	=17	=17	=17
2D]	.	2A	-na,	4r	.	4r	.	4.ff	-stin-
.	.	.	.	4f	s'e-	4a	s'e-	.	.
.	.	.	.	.	.	.	.	8ee	-se an-
2r	.	2r	.	4g	-stin-	4b	-stin-	4dd	-co il
.	.	.	.	4a	-se an-	4a	-se an-	4cc	mio
1r	.	1r	.	4e	-co il	4g	-co il	2.cc	fo-
.	.	.	.	4f	mio	4a	mio	.	.
.	.	.	.	4.cnXi	fo-	4g	fo-	.	.
.	.	.	.	.	.	4a	-co in	4cc	-co in
.	.	.	.	8d	-co in	.	.	.	.
=18	=18	=18	=18	=18	=18	=18	=18	=18	=18
2r	.	2r	.	2e	par-	4a	par-	2b	par-
.	.	.	.	.	.	4g#X	.	.	.
4r	.	4r	.	1A	-te.	2a	-te.	1a	-te.
2D	Sor-	2f#X	Sor-	.	.	.	.	.	.
.	.	.	.	.	.	1r	.	.	.
4E	-se	4g	-se	.	.	.	.	.	.
2F#X	poi	2a	poi	4r	.	.	.	2r	.
.	.	.	.	[4d	Sor-	.	.	.	.
=19	=19	=19	=19	=19	=19	=19	=19	=19	=19
2G	no-	2b	no-	4d]	.	2r	.	1r	.
.	.	.	.	4e	-se	.	.	.	.
2A	-vo ar-	2a	-vo ar-	2f#X	poi	2.cc	Sor-	.	.
1G	-do-	1d	-do-	2g	no-	.	.	2r	.
.	.	.	.	.	.	4b	-se	.	.
.	.	.	.	2G	-vo ar-	2b	poi	[2dd	Sor-
=20	=20	=20	=20	=20	=20	=20	=20	=20	=20
1D	-re:	2d	-re:	1A	-do-	2a	no-	4dd]	.
.	.	.	.	.	.	.	.	4ee	-se
.	.	2d	Ma	.	.	2a	-vo ar-	2ff#X	poi
2r	.	2B-X	fiam-	2.d	-re:	2g	-do-	4gg	no-
.	.	.	.	.	.	.	.	4dd	-vo ar-
4r	.	2A	-ma	.	.	2a	-re:	4ffnXi	-do-
4AA	Ma	.	.	4c	Ma	.	.	4ee	-re:
=21	=21	=21	=21	=21	=21	=21	=21	=21	=21
8D	fiam-	2f	fu,	4B-X	fiam-	2r	.	1r	.
8E	-ma	.	.	.	.	.	.	.	.
8F	fu	.	.	4A	-ma	.	.	.	.
8G	di	.	.	.	.	.	.	.	.
2A	sde-	4r	.	4.c	fu	4r	.	.	.
.	.	4e	Ma	.	.	4a	Ma	.	.
.	.	.	.	8c	di	.	.	.	.
2D	-gno,	8d	fiam-	1A	sde-	2f	fiam-	2r	.
.	.	8e	-ma	.	.	.	.	.	.
.	.	8f	fu	.	.	.	.	.	.
.	.	8g	di	.	.	.	.	.	.
4r	.	2a	sde-	.	.	2e	-ma	2cc	Ma
4A	Ma	.	.	.	.	.	.	.	.
=22	=22	=22	=22	=22	=22	=22	=22	=22	=22
2F	fiam-	4d	-gno,	2A	-gno,	4f	fu	8a	fiam-
.	.	.	.	.	.	.	.	8b	-ma
.	.	2A	Ma	.	.	4a	di	8cc	fu
.	.	.	.	.	.	.	.	8dd	di
2E	-ma	.	.	4r	.	2.b	sde-	2ee	sde-
.	.	2G	fiam-	4g	Ma	.	.	.	.
4G	fu	.	.	8d	fiam-	.	.	2dd	-gno,
.	.	.	.	8e	-ma	.	.	.	.
4D	di	4A	-ma	8f	fu	2a	-gno,	.	.
.	.	.	.	8g	di	.	.	.	.
2C	sde-	2A	fu,	[2a	sde-	.	.	4r	.
.	.	.	.	.	.	4a	Ma	[4ee	Ma
=23	=23	=23	=23	=23	=23	=23	=23	=23	=23
2D	-gno,	4r	.	4a]	.	8f	fiam-	4ee]	.
.	.	.	.	.	.	8g	-ma	.	.
.	.	4d	Ma	4f	-gno,	8a	fu	2dd	fiam-
.	.	.	.	.	.	8b	di	.	.
2E	di	4G	fiam-	2e	di	4.cc	sde-	.	.
.	.	4A	-ma	.	.	.	.	4cc	-ma
.	.	.	.	.	.	16bL	.	.	.
.	.	.	.	.	.	16aJ	.	.	.
1E	sde-	4B	fu	1e	sde-	4g#X	.	4b	fu
.	.	4c	di	.	.	2a	.	4a	di
.	.	2B	sde-	.	.	.	.	2b	sde-
.	.	.	.	.	.	4g#X	.	.	.
=24	=24	=24	=24	=24	=24	=24	=24	=24	=24
2AA	-gno,	2c#X	-gno,	2e	-gno,	2a	-gno,	2a	-gno,
2r	.	2r	.	2r	.	2r	.	2r	.
!!LO:TX:a:cj:t=[whole] &rarr; [whole-dot]
=25	=25	=25	=25	=25	=25	=25	=25	=25	=25
*M6/2	*	*M6/2	*	*M6/2	*	*M6/2	*	*M6/2	*
*omet(C3/2)	*	*omet(C3/2)	*	*omet(C3/2)	*	*omet(C3/2)	*	*omet(C3/2)	*
1D	Ché'l	1A	Ché'l	1d	Ché'l	1f#X	Ché'l	1.r	.
2G	mio	2B	mio	2d	mio	2g	mio	.	.
2.F	do-	2.cnXi	do-	2.f	do-	2.a	do-	1.r	.
4D	-no	4d	-no	4f	-no	4a	-no	.	.
2A	di	2c#X	di	2e	di	2a	di	.	.
=26	=26	=26	=26	=26	=26	=26	=26	=26	=26
1D	voi	1d	voi	2d	voi,	2a	voi,	1dd	Ché'l
.	.	.	.	2d	Ché'l	2a	Ché'l	.	.
2r	.	2r	.	2G	mio	2b	mio	2gg	mio
1.r	.	1.r	.	2.d	do-	2.a	do-	2.ff#X	do-
.	.	.	.	4d	-no	4a	-no	4ff#i	-no
.	.	.	.	2e	di	2g	di	2gg	di
!!LO:TX:a:cj:t=[whole-dot] &rarr; [whole]
=27	=27	=27	=27	=27	=27	=27	=27	=27	=27
*M4/2	*	*M4/2	*	*M4/2	*	*M4/2	*	*M4/2	*
*omet(C)	*	*omet(C)	*	*omet(C)	*	*omet(C)	*	*omet(C)	*
2r	.	1r	.	2f#X	voi	2a	voi	2dd	voi
2G	sti-	.	.	2g	sti-	2b	sti-	1dd	sti-
2F#X	-ma-	2r	.	2a	-ma-	4dd	-ma-	.	.
.	.	.	.	.	.	4a	-ste in-	.	.
2G	-ste in-	2d	sti-	4g	.	2b	-de-	[2gg	-ma-
.	.	.	.	4fnXi	.	.	.	.	.
=28	=28	=28	=28	=28	=28	=28	=28	=28	=28
1A	-de-	2c#X	-ma-	2e	.	1.a	-gno;	2gg]	.
.	.	2d	-ste in-	4f	-ste in-	.	.	2ff	-ste in-
.	.	.	.	2d	-de-	.	.	.	.
1A	-gno;	1e	-de-	.	.	.	.	1ee	-de-
.	.	.	.	8c#XL	.	.	.	.	.
.	.	.	.	8BJ	.	.	.	.	.
.	.	.	.	2c#X	.	2r	.	.	.
=29	=29	=29	=29	=29	=29	=29	=29	=29	=29
4r	.	2f#X	-gno;	4d	-gno;	2a	Que-	2dd	-gno;
4d	Que-	.	.	4d	Que-	.	.	.	.
4c#X	-sto	2r	.	4e	-sto	4a	-sto	2r	.
4d	sec-	.	.	4f	sec-	4a	sec-	.	.
4B	-cò	1r	.	4d	-cò	2g	-cò	1r	.
4cnXi	le	.	.	4e	le	.	.	.	.
8FL	chio-	.	.	8AL	chio-	2f	le	.	.
8G	.	.	.	8B	.	.	.	.	.
8A	.	.	.	8cnXi	.	.	.	.	.
8BJ	.	.	.	8dJ	.	.	.	.	.
=30	=30	=30	=30	=30	=30	=30	=30	=30	=30
8cL	.	1r	.	8eL	.	2e	chio-	1r	.
8B	.	.	.	8d	.	.	.	.	.
8A	.	.	.	8c	.	.	.	.	.
8GJ	.	.	.	8BJ	.	.	.	.	.
8FL	.	.	.	2A	.	2a	-me,	.	.
8EJ	.	.	.	.	.	.	.	.	.
4.D	.	.	.	.	.	.	.	.	.
.	.	2a	Que-	4A	-me,	1r	.	2ff	Que-
8EL	.	.	.	.	.	.	.	.	.
8F	.	.	.	4d	Que-	.	.	.	.
8GJ	.	.	.	.	.	.	.	.	.
4A	.	4a	-sto	4c#X	-sto	.	.	4ee	-sto
4D	-me	4a	sec-	4d	sec-	.	.	4ff	sec-
=31	=31	=31	=31	=31	=31	=31	=31	=31	=31
0r	.	2g	-cò	4B	-cò	1r	.	4dd	-cò
.	.	.	.	4cnXi	le	.	.	4ee	le
.	.	2f	le	8FL	chio-	.	.	8aL	chio-
.	.	.	.	8G	.	.	.	8b	.
.	.	.	.	8A	.	.	.	8cc	.
.	.	.	.	8BJ	.	.	.	8ddJ	.
.	.	2e	chio-	8cL	.	4r	.	8eeL	.
.	.	.	.	8B	.	.	.	8dd	.
.	.	.	.	8A	.	2e	Del	8cc	.
.	.	.	.	8GJ	.	.	.	8bJ	.
.	.	4c	-me	4A	.	.	.	8ccL	.
.	.	.	.	.	.	.	.	8dd	.
.	.	[4c	Del	8A	-me	[4cc	lau-	8ee	.
.	.	.	.	8A	Del	.	.	8ffJ	.
=32	=32	=32	=32	=32	=32	=32	=32	=32	=32
4r	.	4c]	.	4e	lau-	4cc]	.	4gg	.
4F	Del	2f	lau-	4c	-ro on-	4a	-ro,	4ff	-me
2B-X	lau-	.	.	4d	-d'ho-	4f	Del	4r	.
.	.	4d	-ro, on-	4G	-no-	2b-X	lau-	2dd	Del
2G	-ro, on-	2.g	-d'ho-	2d	-ra-	.	.	.	.
.	.	.	.	.	.	2g	-ro, on-	2gg	lau-
2c	-d'ho-	.	.	2e	-va il	.	.	.	.
.	.	4g	-no-	.	.	[4cc	-d'ho-	4ee	-ro, on-
=33	=33	=33	=33	=33	=33	=33	=33	=33	=33
2A	-no-	2.a	-ra-	2c	vo-	4cc]	.	4ff	-d'ho-
.	.	.	.	.	.	4a	-no-	4ee	-no-
2BnXi	-ra-	.	.	2d	-stro	4d	-ra-	2dd	-ra-
.	.	4g	-va il	.	.	2g	-va il	.	.
2c	-va il	4e	vo-	2c	no-	.	.	2ee	-va il
.	.	4e	-stro	.	.	2a	vo-	.	.
4F	vo-	2f	no-	2d	-me, il	.	.	2dd	vo-
4G	-stro	.	.	.	.	4b-X	-stro	.	.
=34	=34	=34	=34	=34	=34	=34	=34	=34	=34
1A	no-	4e	-me,	4a	vo-	1a	no-	4cc#X	-stro
.	.	4A	Del	4f	-stro	.	.	2dd	no-
.	.	2e	lau-	2e	no-	.	.	.	.
.	.	.	.	.	.	.	.	4cc#X	.
1D	-me,	2d	-ro, on-	1f#X	-me,	2a	-me,	1dd	-me,
.	.	4.A	-d'ho-	.	.	2a	il	.	.
.	.	8B	-no-	.	.	.	.	.	.
=35	=35	=35	=35	=35	=35	=35	=35	=35	=35
1r	.	4c#X	-ra-	0r	.	2e	vo-	1r	.
.	.	4c#X	-va il	.	.	.	.	.	.
.	.	2.d	vo-	.	.	2f	-stro	.	.
2AA	Del	.	.	.	.	1e	no-	2ee	il
.	.	4cnXi	-stro	.	.	.	.	.	.
2A	lau-	2c	no-	.	.	.	.	2a	vo-
=36	=36	=36	=36	=36	=36	=36	=36	=36	=36
2G	-ro, on-	2d	-me,	2r	.	2g	-me,	2b-X	-stro
4.D	-d'ho-	2f	on-	2d	il	2r	.	1a	no-
8E	-no-	.	.	.	.	.	.	.	.
4F#X	-ra-	2d	-d'ho-	2A	vo-	2r	.	.	.
4F#i	-va il	.	.	.	.	.	.	.	.
[2G	vo-	2d	-no-	2B-X	-stro	2d	Del	2g	-me,
=37	=37	=37	=37	=37	=37	=37	=37	=37	=37
2G]	.	2.d	-ra-	1A	no-	1a	lau-	1r	.
2F#X	-stro	.	.	.	.	.	.	.	.
.	.	4d	-va il	.	.	.	.	.	.
2G	no-	2B	vo-	4BnXi	-me,	2g	-ro, on-	2dd	Del
.	.	.	.	4B	on-	.	.	.	.
2D	-me,	2d	-stro	4.A	-d'ho-	4.f	-d'ho-	2ff	lau-
.	.	.	.	8B	-no-	8g	-no-	.	.
=38	=38	=38	=38	=38	=38	=38	=38	=38	=38
2r	.	2A	no-	2c#X	-ra-	4a	-ra-	2ee	-ro, on-
.	.	.	.	.	.	4a	-va il	.	.
4r	.	4f	-me,	2d	-va	1a	vo-	4.a	-d'ho-
4d	il	4f	il	.	.	.	.	.	.
.	.	.	.	.	.	.	.	8b	-no-
2A	vo-	2e	vo-	1r	.	.	.	4cc#X	-ra-
.	.	.	.	.	.	.	.	4cc#i	-va il
2B-X	-stro	2d	-stro	.	.	2g	-stro	[2dd	vo-
=39	=39	=39	=39	=39	=39	=39	=39	=39	=39
[0A	no-	2.e	no-	2r	.	[0a	no-	2dd]	.
.	.	.	.	2a	il	.	.	2cc#X	-stro
.	.	4d	.	.	.	.	.	.	.
.	.	2c#X	.	2e	vo-	.	.	2ee	no-
.	.	2d	.	2f	-stro	.	.	[2dd	.
=40	=40	=40	=40	=40	=40	=40	=40	=40	=40
1A]	.	1e	.	1e	no-	1a]	.	4dd]	.
.	.	.	.	.	.	.	.	8cc#iL	.
.	.	.	.	.	.	.	.	8bJ	.
.	.	.	.	.	.	.	.	2cc#X	.
1Dl	-me.	1f#Xl	-me.	1dl	-me.	1al	-me.	1ddl	-me.
==	==	==	==	==	==	==	==	==	==
*-	*-	*-	*-	*-	*-	*-	*-	*-	*-
!!!system-decoration: [*]
!!!RDF**kern: i = editorial accidental
!!!RDF**kern: l = terminal long
!!!ENC: Emiliano Ricciardi
!!!END:
!!!EED: Ricciardi, Emiliano
!!!EEV: 2020/01/19
!!!YEC: Copyright 2018 Emiliano Ricciardi, All Rights Reserved
!!!ONB: Translated from MusicXML on 2020/01/19
!!@@BEGIN:	VERSEDATA
!!@SOLERTI:	191
!!@CATALOGNUM:	Trm0191
!!@LAST_MODIFIED: 2020/07/12
!!@TITLE:		Arsi mentre m'amaste
!!@GENRE:		madrigale
!!@MANUSRC:	P<sub>3</sub>, Pt, Z<sub>1</sub>
!!@PRINTSRC:	27, 70, 78, 141, 145, 166, 169
!!@@BEGIN:	VERSES
!!@ABOUTIT:	Nel medesimo soggetto. (i.e., "IL LAURO SECCO." Rime 189-190)
!!@ABOUTEN:	On the same subject. (i.e., "THE DRY LAUREL." Rime 189-190)
!!@EDITOR:	Solerti, Angelo
!!@EDITION_TITLE: Le Rime di Torquato Tasso
!!@EDITION_LOC:	Bologna
!!@EDITION_PUB:	Romagnoli-Dall’Acqua
!!@EDITION_DATE:  1898-1902
!!@EDITION_VOL:	2
!!@EDITION_PAGE:  283
!!@TRANSLATOR:	Emiliano Ricciardi and Amyrose McCue Gill
!!@VERSE:
!!	Arsi mentre m'amaste,
!!	Ed al cortese affetto
!!	Pagò tributo di sospiri il petto:
!!	Ma poi che il vostro amore
!!	Volgeste in altra parte,
!!	Donna, s'estinse anco il mio foco in parte.
!!	Sorse poi novo ardore,
!!	Ma fiamma fu di sdegno
!!	Perché 'l mio don di voi stimaste indegno:
!!	Questa seccò le chiome
!!	Del lauro ond'onorava il vostro nome.
!!@TVERSE:
!!	I burned while you loved me,
!!	And to graceful affection
!!	The heart paid a tribute of sighs:
!!	But since your love
!!	You turned elsewhere,
!!	Lady, my fire, too, partly extinguished itself.
!!	Arose a new ardor,
!!	But the flame was of scorn
!!	Because my gift you deemed of you unworthy:
!!	This [flame] dried the leaves
!!	Of the laurel that honored your name.
!!@@END:		VERSES
!!@OTHER_CRIT_ED:   None
!!@ATTRIBUTION_ABOUT:	Secure
!!		<br>
!!		Although this poem is attributed to Tasso only in manuscripts and prints that were not supervised by the poet (see Literary Sources), its subject matter and inclusion in the Ferrarese anthology for Laura Peperara <i>Il lauro secco</i>, to which Tasso is known to have contributed several poems (see <i>Rime</i> 189), strongly supports a Tassian attibution.
!!@DATING:	1582
!!@DEDICATEE:	Peperara, Laura
!!@COMMENTARY:
!!@@END:		VERSEDATA
!!@@BEGIN:	SETTING
!!@CATALOGNUM:	Trm0191a
!!@RIMETITLE:	Arsi mentre m'amaste
!!@SETTINGTITLE: Arsi mentre a voi piacque
!!@SOLERTI:	191
!!@COMPOSER:	Virchi, Paolo
!!@PRINCEPSTITLE:	Il lauro secco
!!@PRINCEPSLOC:	Ferrara
!!@NORMLOC:	Ferrara
!!@NORMPUB:	Baldini
!!@NORMPUBSHORT:	Baldini
!!@PRINCEPSPUB:	Baldini
!!@PRINCEPSYEAR:	1582
!!@PRINCEPSRISM:	1582-05
!!@REPRINTS:	1596-12, V2105
!!@OVOICES:	5
!!@EXTANTVOICES:	5
!!@PARTBOOKS:	
!!@EXTPARTBOOKS:	
!!@OCLEFS:	G2,C1,C3,C3,F3
!!@OMENSURATION:	C; C 3/2; C
!!@OKEYSIG:	-
!!@FINAL:	D
!!@TIMPEDITOR:	Ricciardi, Emiliano
!!@NOTE:		
!!@@END:		SETTING
